client/public/assets/icons/standard/timeslot.svg

<svg id="icons" xmlns="http://www.w3.org/2000/svg" width="100" height="100" viewBox="0 0 100 100"><title>timeslot</title><path d="M70.95,20H29.19a7.93,7.93,0,0,0-8,7.81V72.19A7.9,7.9,0,0,0,29.05,80H70.95a7.9,7.9,0,0,0,7.83-7.81V27.81A7.73,7.73,0,0,0,70.95,20ZM31.8,33a2.7,2.7,0,0,1,2.61-2.6H47.73A2.7,2.7,0,0,1,50.34,33v2.6a2.7,2.7,0,0,1-2.61,2.6H34.41a2.7,2.7,0,0,1-2.61-2.6ZM68,67a2.7,2.7,0,0,1-2.61,2.6H52.17A2.7,2.7,0,0,1,49.56,67v-2.6a2.7,2.7,0,0,1,2.61-2.6H65.49A2.58,2.58,0,0,1,68,64.38Zm.51-12.39a2.83,2.83,0,0,1-2.75,2.6H34.41a2.7,2.7,0,0,1-2.61-2.6V45.54a2.7,2.7,0,0,1,2.61-2.6H65.86a2.7,2.7,0,0,1,2.61,2.6Z" fill="#fff" fill-rule="evenodd"/></svg>

<?xml version="1.0"?><svg xmlns="http://www.w3.org/2000/svg" width="100" height="100" viewBox="0 0 100 100"><title></title><path d="m71 20h-41.8a7.9 7.9 0 0 0-8 7.8v44.4a7.9 7.9 0 0 0 7.9 7.8h41.9a7.9 7.9 0 0 0 7.8-7.8v-44.4a7.7 7.7 0 0 0-7.8-7.8z m-39.2 13a2.7 2.7 0 0 1 2.6-2.6h13.3a2.7 2.7 0 0 1 2.6 2.6v2.6a2.7 2.7 0 0 1-2.6 2.6h-13.3a2.7 2.7 0 0 1-2.6-2.6z m36.2 34a2.7 2.7 0 0 1-2.6 2.6h-13.2a2.7 2.7 0 0 1-2.6-2.6v-2.6a2.7 2.7 0 0 1 2.6-2.6h13.3a2.6 2.6 0 0 1 2.5 2.6z m0.5-12.4a2.8 2.8 0 0 1-2.7 2.6h-31.4a2.7 2.7 0 0 1-2.6-2.6v-9.1a2.7 2.7 0 0 1 2.6-2.6h31.5a2.7 2.7 0 0 1 2.6 2.6z" fill="#fff" fill-rule="evenodd"></path></svg>
